packages/astro-components-stencil/src/icons/shopping-basket.svg

<svg width="24" height="24" viewBox="0 0 24 24" fill="none" xmlns="http://www.w3.org/2000/svg">
<path fill-rule="evenodd" clip-rule="evenodd" d="M22 9.00005H17.21L12.82 2.43005C12.42 1.84005 11.55 1.84005 11.16 2.43005L6.77 9.00005H2C1.45 9.00005 1 9.45005 1 10C1 10.09 1.01 10.18 1.04 10.27L3.58 19.54C3.81 20.38 4.58 21 5.5 21H18.5C19.42 21 20.19 20.38 20.43 19.54L22.97 10.27L23 10C23 9.45005 22.55 9.00005 22 9.00005ZM11.99 4.79005L14.8 9.00005H9.18L11.99 4.79005ZM10 15C10 16.1 10.9 17 12 17C13.1 17 14 16.1 14 15C14 13.9 13.1 13 12 13C10.9 13 10 13.9 10 15Z" fill="black"/>
</svg>

<svg xmlns="http://www.w3.org/2000/svg" viewBox="0 0 24 24"><g xmlns="http://www.w3.org/2000/svg" id="shopping-basket" fill-rule="nonzero">
            <path d="M22 9h-4.79l-4.39-6.57a1 1 0 00-1.66 0L6.77 9H2c-.55 0-1 .45-1 1 0 .09.01.18.04.27l2.54 9.27c.23.84 1 1.46 1.92 1.46h13c.92 0 1.69-.62 1.93-1.46l2.54-9.27L23 10c0-.55-.45-1-1-1zM11.99 4.79L14.8 9H9.18l2.81-4.21zM12 17c-1.1 0-2-.9-2-2s.9-2 2-2 2 .9 2 2-.9 2-2 2z"/>
        </g></svg>
